build/category/ServiceRequestOutline.svg

<svg xmlns="http://www.w3.org/2000/svg" fill="none" viewBox="0 0 24 24" focusable="false"><path d="M0 0H24V24H0z"/><path fill="#74767B" fill-rule="evenodd" d="M7 5C5.34315 5 4 6.34315 4 8L4 18.7129C4 19.803 5.26091 20.409 6.1121 19.7281L9.52219 17L17 17C18.6569 17 20 15.6569 20 14L20 8C20 6.34315 18.6569 5 17 5L7 5ZM9.06618 15.7L5.3 18.7129L5.3 8C5.3 7.06112 6.06112 6.3 7 6.3L17 6.3C17.9389 6.3 18.7 7.06112 18.7 8L18.7 14C18.7 14.9389 17.9389 15.7 17 15.7L9.06618 15.7ZM11.2422 7.53408C10.8832 7.53408 10.5922 7.8251 10.5922 8.18408C10.5922 8.54307 10.8832 8.83408 11.2422 8.83408L12.7321 8.83408C12.8659 8.83408 12.9743 8.94252 12.9743 9.07628C12.9743 9.18067 12.8769 9.36797 12.6127 9.47177C12.1942 9.63621 11.6108 9.95652 11.3142 10.5724C11.1584 10.8959 11.2943 11.2843 11.6178 11.4401C11.9412 11.5959 12.3297 11.46 12.4854 11.1365C12.5689 10.9633 12.7774 10.8038 13.0881 10.6817C13.6722 10.4522 14.2743 9.88333 14.2743 9.07628C14.2743 8.22455 13.5839 7.53408 12.7321 7.53408L11.2422 7.53408ZM12.6731 13.5903C12.6731 14.0597 12.2926 14.4403 11.8231 14.4403C11.3537 14.4403 10.9731 14.0597 10.9731 13.5903C10.9731 13.1208 11.3537 12.7403 11.8231 12.7403C12.2926 12.7403 12.6731 13.1208 12.6731 13.5903Z"/></svg>

<svg xmlns="http://www.w3.org/2000/svg" fill="none" viewBox="0 0 24 24" focusable="false"><path fill="#74767B" fill-rule="evenodd" d="M7 5C5.34 5 4 6.34 4 8v10.71c0 1.09 1.26 1.69 2.11 1.01L9.52 17H17c1.65 0 3-1.35 3-3V8c0-1.66-1.35-3-3-3zm2.06 10.7-3.77 3.01V8c0-.94.77-1.7 1.71-1.7h10c.93 0 1.7.76 1.7 1.7v6c0 .93-.77 1.7-1.7 1.7zm2.18-8.17c-.36 0-.65.29-.65.65s.29.65.65.65h1.49c.13 0 .24.11.24.24 0 .11-.1.29-.36.4-.42.16-1 .48-1.3 1.1-.16.32-.02.71.3.87.33.15.71.02.87-.31.08-.17.29-.33.6-.45.59-.23 1.19-.8 1.19-1.61 0-.85-.69-1.54-1.54-1.54zm1.43 6.06c0 .46-.38.85-.85.85s-.85-.39-.85-.85a.85.85 0 1 1 1.7 0"/></svg>
